public/player-logo.svg

<svg width="100%" height="100%" viewBox="0 0 714 216" version="1.1" xmlns="http://www.w3.org/2000/svg" xmlns:xlink="http://www.w3.org/1999/xlink" xml:space="preserve" xmlns:serif="http://www.serif.com/" style="fill-rule:evenodd;clip-rule:evenodd;stroke-linejoin:round;stroke-miterlimit:2;">
    <g transform="matrix(1,0,0,1,-67.94,-316.92)">
        <path d="M359.49,532.59C354.508,532.574 349.614,531.265 345.29,528.79C336.261,523.737 330.677,514.137 330.75,503.79L330.75,345.7C330.75,345.697 330.75,345.693 330.75,345.69C330.75,329.924 343.724,316.95 359.49,316.95C364.668,316.95 369.751,318.35 374.2,321L506.74,400.06C515.421,405.237 520.754,414.628 520.754,424.735C520.754,434.842 515.421,444.233 506.74,449.41L374.2,528.48C369.758,531.152 364.674,532.572 359.49,532.59Z" style="fill-rule:nonzero;"/>
    </g>
    <g transform="matrix(1,0,0,1,-67.94,-316.92)">
        <path d="M136.64,321.33L67.94,321.33L67.94,528.18L136.64,528.18L136.64,458.76L206.72,458.76L206.72,528.18L275.42,528.18L275.42,321.33L206.72,321.33L206.72,389.33L136.64,389.33L136.64,321.33ZM561.08,321.33L768.56,321.33L768.56,528.18L699.86,528.18L699.86,389.35L629.79,389.35L629.79,528.18L561.08,528.18L561.08,321.33Z"/>
    </g>
</svg>

<svg id="Layer_1" data-name="Layer 1" xmlns="http://www.w3.org/2000/svg" width="713.62" height="215.67" viewBox="0 0 713.62 215.67">
  <path d="M359.49,532.59a28.77,28.77,0,0,1-14.2-3.8,28.42,28.42,0,0,1-14.54-25V345.7A28.74,28.74,0,0,1,374.2,321l132.54,79.06a28.73,28.73,0,0,1,0,49.35L374.2,528.48A28.73,28.73,0,0,1,359.49,532.59Z" transform="translate(-67.94 -316.92)"/>
  <path d="M136.64,321.33H67.94V528.18h68.7V458.76h70.08v69.42h68.7V321.33h-68.7v68H136.64Zm437.44,0H781.56V528.18h-68.7V389.35H642.79V528.18H574.08Z" transform="translate(-67.94 -316.92)" fill-rule="evenodd"/>
</svg>
